app/dist/common/images/hercules-capital.svg

<svg height="18" width="18" xmlns="http://www.w3.org/2000/svg"><path d="m0 0h18v18h-18z" fill="#f0f3fa"/><path d="m6 8.893c0-2.116-1.457-4.144-2-4.893h1.111c.779 0 1.889 3.456 1.889 4.5h4c0-1.562 1.083-4.5 1.889-4.5h1.111c-.534.522-2.025 2.846-2 4.893.032 2.618 1.493 4.513 2 5.107h-1.111c-.978 0-1.813-3.648-1.889-4.5h-4c-.122 1.8-1.586 4.5-1.889 4.5h-1.053c.858-1.415 1.942-2.616 1.942-5.107z"/><path d="m11 4.005h-4c.806.647 1.553 2.18 1.826 2.865.025.063.063.136.197.136.139 0 .187-.096.195-.136.364-1.352 1.34-2.474 1.782-2.865zm0 9.995h-4c.806-.647 1.553-2.179 1.826-2.864.025-.063.063-.136.197-.136.139 0 .187.096.195.136.364 1.351 1.34 2.472 1.782 2.864z" fill="#b1624a"/></svg>

<!-- by TradingView --><svg width="18" height="18" xmlns="http://www.w3.org/2000/svg"><path fill="#F0F3FA" d="M0 0h18v18H0z"/><path d="M6 8.893C6 6.777 4.543 4.749 4 4h1.111C5.89 4 7 7.456 7 8.5h4C11 6.938 12.083 4 12.889 4H14c-.534.522-2.025 2.846-2 4.893.032 2.618 1.493 4.513 2 5.107h-1.111c-.978 0-1.813-3.648-1.889-4.5H7C6.878 11.3 5.414 14 5.111 14H4.058C4.916 12.585 6 11.384 6 8.893z" fill="#000"/><path d="M11 4.005H7c.806.647 1.553 2.18 1.826 2.865.025.063.063.136.197.136.139 0 .187-.096.195-.136.364-1.352 1.34-2.474 1.782-2.865zM11 14H7c.806-.647 1.553-2.179 1.826-2.864.025-.063.063-.136.197-.136.139 0 .187.096.195.136.364 1.351 1.34 2.472 1.782 2.864z" fill="#B1624A"/></svg>
